;Generated with Cura_SteamEngine 15.05
; Default start code
G28 ; Home extruder
G1 Z15 F10000
M107 ; Turn off fan
G90 ; Absolute positioning
M82 ; Extruder in absolute mode
M190 S50
; Activate all used extruder
M104 T0 S215
G92 E0 ; Reset extruder position
; Wait for all used extruders to reach temperature
M109 T0 S215
;Layer count: 90
;LAYER:0
M107
G0 F9000 X45.759 Y-1.604 Z0.200
;TYPE:SKIRT
G1 F180 X45.759 Y1.604 E0.10670
G1 X47.759 Y0.605 E0.18106
G1 X47.759 Y15.397 E0.67304
G1 X45.759 Y14.397 E0.74741
G1 X45.759 Y19.200 E0.90716
G1 X-47.759 Y19.200 E4.01758
G1 X-47.759 Y-19.200 E5.29477
G1 X45.759 Y-19.200 E8.40519
G1 X45.759 Y-14.398 E8.56491
G1 X47.759 Y-15.398 E8.63928
G1 X47.759 Y-0.606 E9.13126
G1 X45.759 Y-1.604 E9.20560
G1 F2400 E5.20560
G0 F9000 X43.959 Y-6.750
;TYPE:WALL-INNER
G1 F2400 E9.20560
G1 F180 X42.852 Y-7.303 E9.24676
G1 X41.959 Y-7.767 E9.28023
G1 X41.959 Y7.749 E9.79630
G1 X43.959 Y6.750 E9.87065
G1 X43.959 Y9.249 E9.95377
G1 X42.852 Y8.696 E9.99493
G1 X41.959 Y8.232 E10.02840
G1 X41.959 Y15.400 E10.26681
G1 X-43.959 Y15.400 E13.12445
G1 X-43.959 Y10.471 E13.28839
G1 X-41.960 Y11.471 E13.36274
G1 X-41.960 Y4.530 E13.59359
G1 X-43.959 Y5.528 E13.66791
G1 X-43.959 Y-5.528 E14.03563
G1 X-41.960 Y-4.529 E14.10996
G1 X-41.960 Y-11.471 E14.34085
G1 X-43.959 Y-10.472 E14.41518
G1 X-43.959 Y-15.400 E14.57908
G1 X41.959 Y-15.400 E17.43673
G1 X41.959 Y-8.249 E17.67457
G1 X43.959 Y-9.249 E17.74894
G1 X43.959 Y-6.750 E17.83206
G0 F9000 X42.673 Y-6.945
;TYPE:WALL-OUTER
G1 F180 X42.359 Y-7.108 E17.84383
G1 X42.359 Y7.102 E18.31645
G1 X44.359 Y6.103 E18.39081
G1 X44.359 Y9.897 E18.51700
G1 X42.673 Y9.054 E18.57969
G1 X42.359 Y8.891 E18.59146
G1 X42.359 Y15.800 E18.82126
G1 X-44.359 Y15.800 E21.70551
G1 X-44.359 Y9.824 E21.90427
G1 X-42.360 Y10.824 E21.97861
G1 X-42.360 Y5.177 E22.16643
G1 X-44.359 Y6.175 E22.24075
G1 X-44.359 Y-6.176 E22.65154
G1 X-42.360 Y-5.176 E22.72588
G1 X-42.360 Y-10.824 E22.91374
G1 X-44.359 Y-9.824 E22.98808
G1 X-44.359 Y-15.800 E23.18684
G1 X42.359 Y-15.800 E26.07109
G1 X42.359 Y-8.896 E26.30072
G1 X44.359 Y-9.896 E26.37509
G1 X44.359 Y-6.103 E26.50125
G1 X42.673 Y-6.945 E26.56393
G0 F9000 X43.479 Y-7.148
;TYPE:SKIN
G1 F180 X42.344 Y-8.284 E26.61734
G0 F9000 X42.721 Y-8.472
G1 F180 X43.818 Y-7.375 E26.66894
G0 F9000 X43.818 Y-7.941
G1 F180 X43.098 Y-8.661 E26.70281
G0 F9000 X43.475 Y-8.850
G1 F180 X43.818 Y-8.507 E26.71894
G0 F9000 X42.325 Y-7.737
G1 F180 X41.967 Y-8.095 E26.73578
G0 F9000 X41.818 Y-8.244
G1 F180 X34.803 Y-15.259 E27.06574
G0 F9000 X34.238 Y-15.259
G1 F180 X41.818 Y-7.679 E27.42228
G0 F9000 X41.818 Y-7.113
G1 F180 X33.672 Y-15.259 E27.80545
G0 F9000 X33.106 Y-15.259
G1 F180 X41.818 Y-6.547 E28.21523
G0 F9000 X41.818 Y-5.982
G1 F180 X32.541 Y-15.259 E28.65159
G0 F9000 X31.975 Y-15.259
G1 F180 X41.818 Y-5.416 E29.11458
G0 F9000 X41.818 Y-4.850
G1 F180 X31.409 Y-15.259 E29.60419
G0 F9000 X30.843 Y-15.259
G1 F180 X41.818 Y-4.285 E30.12039
G0 F9000 X41.818 Y-3.719
G1 F180 X30.278 Y-15.259 E30.66320
G0 F9000 X29.712 Y-15.259
G1 F180 X41.818 Y-3.153 E31.23263
G0 F9000 X41.818 Y-2.588
G1 F180 X29.146 Y-15.259 E31.82866
G0 F9000 X28.581 Y-15.259
G1 F180 X41.818 Y-2.022 E32.45128
G0 F9000 X41.818 Y-1.456
G1 F180 X28.015 Y-15.259 E33.10053
G0 F9000 X27.449 Y-15.259
G1 F180 X41.818 Y-0.890 E33.77641
G0 F9000 X41.818 Y-0.325
G1 F180 X26.884 Y-15.259 E34.47886
G0 F9000 X26.318 Y-15.259
G1 F180 X41.818 Y0.240 E35.20791
G0 F9000 X41.818 Y0.806
G1 F180 X25.752 Y-15.259 E35.96358
G0 F9000 X25.187 Y-15.259
G1 F180 X41.818 Y1.371 E36.74583
G0 F9000 X41.818 Y1.937
G1 F180 X24.621 Y-15.259 E37.55470
G0 F9000 X24.055 Y-15.259
G1 F180 X41.818 Y2.503 E38.39019
G0 F9000 X41.818 Y3.068
G1 F180 X23.490 Y-15.259 E39.25226
G0 F9000 X22.924 Y-15.259
G1 F180 X41.818 Y3.634 E40.14095
G0 F9000 X41.818 Y4.200
G1 F180 X22.358 Y-15.259 E41.05627
G0 F9000 X21.793 Y-15.259
G1 F180 X41.818 Y4.765 E41.99816
G0 F9000 X41.818 Y5.331
G1 F180 X21.227 Y-15.259 E42.96667
G0 F9000 X20.661 Y-15.259
G1 F180 X41.818 Y5.897 E43.96181
G0 F9000 X41.818 Y6.462
G1 F180 X20.095 Y-15.259 E44.98355
G0 F9000 X9.347 Y-15.259
G1 F180 X39.866 Y15.259 E46.41904
G0 F9000 X39.300 Y15.259
G1 F180 X8.782 Y-15.259 E47.85452
G0 F9000 X8.216 Y-15.259
G1 F180 X38.735 Y15.259 E49.29001
G0 F9000 X38.169 Y15.259
G1 F180 X7.650 Y-15.259 E50.72551
G0 F9000 X7.085 Y-15.259
G1 F180 X37.603 Y15.259 E52.16098
G0 F9000 X37.038 Y15.259
G1 F180 X6.519 Y-15.259 E53.59648
G0 F9000 X5.953 Y-15.259
G1 F180 X36.472 Y15.259 E55.03198
G0 F9000 X35.906 Y15.259
G1 F180 X5.388 Y-15.259 E56.46745
G0 F9000 X4.822 Y-15.259
G1 F180 X35.341 Y15.259 E57.90295
G0 F9000 X34.775 Y15.259
G1 F180 X4.256 Y-15.259 E59.33844
G0 F9000 X3.691 Y-15.259
G1 F180 X34.209 Y15.259 E60.77392
G0 F9000 X33.644 Y15.259
G1 F180 X3.125 Y-15.259 E62.20941
G0 F9000 X2.559 Y-15.259
G1 F180 X33.078 Y15.259 E63.64491
G0 F9000 X32.512 Y15.259
G1 F180 X1.994 Y-15.259 E65.08038
G0 F9000 X1.428 Y-15.259
G1 F180 X31.947 Y15.259 E66.51588
G0 F9000 X31.381 Y15.259
G1 F180 X0.862 Y-15.259 E67.95138
G0 F9000 X0.296 Y-15.259
G1 F180 X30.815 Y15.259 E69.38687
G0 F9000 X30.250 Y15.259
G1 F180 X-0.268 Y-15.259 E70.82235
G0 F9000 X-0.834 Y-15.259
G1 F180 X29.684 Y15.259 E72.25782
G0 F9000 X29.118 Y15.259
G1 F180 X-1.400 Y-15.259 E73.69329
G0 F9000 X-1.965 Y-15.259
G1 F180 X28.552 Y15.259 E75.12874
G0 F9000 X27.987 Y15.259
G1 F180 X-2.531 Y-15.259 E76.56421
G0 F9000 X-3.097 Y-15.259
G1 F180 X27.421 Y15.259 E77.99969
G0 F9000 X26.855 Y15.259
G1 F180 X-3.662 Y-15.259 E79.43514
G0 F9000 X-4.228 Y-15.259
G1 F180 X26.290 Y15.259 E80.87061
G0 F9000 X25.724 Y15.259
G1 F180 X-4.794 Y-15.259 E82.30608
G0 F9000 X-5.359 Y-15.259
G1 F180 X25.158 Y15.259 E83.74153
G0 F9000 X24.593 Y15.259
G1 F180 X-5.925 Y-15.259 E85.17701
G0 F9000 X-6.491 Y-15.259
G1 F180 X24.027 Y15.259 E86.61248
G0 F9000 X23.461 Y15.259
G1 F180 X-7.056 Y-15.259 E88.04793
G0 F9000 X-7.622 Y-15.259
G1 F180 X22.896 Y15.259 E89.48340
G0 F9000 X22.330 Y15.259
G1 F180 X-8.188 Y-15.259 E90.91888
G0 F9000 X-8.753 Y-15.259
G1 F180 X21.764 Y15.259 E92.35432
G0 F9000 X21.199 Y15.259
G1 F180 X-9.319 Y-15.259 E93.78980
G0 F9000 X-9.885 Y-15.259
G1 F180 X20.633 Y15.259 E95.22527
G0 F9000 X20.067 Y15.259
G1 F180 X-10.451 Y-15.259 E96.66074
G0 F9000 X-11.016 Y-15.259
G1 F180 X19.502 Y15.259 E98.09622
G0 F9000 X18.936 Y15.259
G1 F180 X-11.582 Y-15.259 E99.53169
G0 F9000 X-12.148 Y-15.259
G1 F180 X18.370 Y15.259 E100.96716
G0 F9000 X17.804 Y15.259
G1 F180 X-12.713 Y-15.259 E102.40261
G0 F9000 X-13.279 Y-15.259
G1 F180 X17.239 Y15.259 E103.83809
G0 F9000 X16.673 Y15.259
G1 F180 X-13.845 Y-15.259 E105.27356
G0 F9000 X-14.410 Y-15.259
G1 F180 X16.107 Y15.259 E106.70901
G0 F9000 X15.542 Y15.259
G1 F180 X-14.976 Y-15.259 E108.14448
G0 F9000 X-15.542 Y-15.259
G1 F180 X14.976 Y15.259 E109.57996
G0 F9000 X14.410 Y15.259
G1 F180 X-16.107 Y-15.259 E111.01541
G0 F9000 X-16.673 Y-15.259
G1 F180 X13.845 Y15.259 E112.45088
G0 F9000 X13.279 Y15.259
G1 F180 X-17.239 Y-15.259 E113.88635
G0 F9000 X-17.804 Y-15.259
G1 F180 X12.713 Y15.259 E115.32180
G0 F9000 X12.148 Y15.259
G1 F180 X-18.370 Y-15.259 E116.75727
G0 F9000 X-18.936 Y-15.259
G1 F180 X11.582 Y15.259 E118.19275
G0 F9000 X11.016 Y15.259
G1 F180 X-19.502 Y-15.259 E119.62822
G0 F9000 X-20.067 Y-15.259
G1 F180 X10.451 Y15.259 E121.06369
G0 F9000 X9.885 Y15.259
G1 F180 X-20.633 Y-15.259 E122.49917
G0 F9000 X-21.199 Y-15.259
G1 F180 X9.319 Y15.259 E123.93464
G0 F9000 X8.753 Y15.259
G1 F180 X-21.764 Y-15.259 E125.37009
G0 F9000 X-22.330 Y-15.259
G1 F180 X8.188 Y15.259 E126.80556
G0 F9000 X7.622 Y15.259
G1 F180 X-22.896 Y-15.259 E128.24104
G0 F9000 X-23.461 Y-15.259
G1 F180 X7.056 Y15.259 E129.67649
G0 F9000 X6.491 Y15.259
G1 F180 X-24.027 Y-15.259 E131.11196
G0 F9000 X-24.593 Y-15.259
G1 F180 X5.925 Y15.259 E132.54743
G0 F9000 X5.359 Y15.259
G1 F180 X-25.158 Y-15.259 E133.98288
G0 F9000 X-25.724 Y-15.259
G1 F180 X4.794 Y15.259 E135.41835
G0 F9000 X4.228 Y15.259
G1 F180 X-26.290 Y-15.259 E136.85383
G0 F9000 X-26.855 Y-15.259
G1 F180 X3.662 Y15.259 E138.28928
G0 F9000 X3.097 Y15.259
G1 F180 X-27.421 Y-15.259 E139.72475
G0 F9000 X-27.987 Y-15.259
G1 F180 X2.531 Y15.259 E141.16022
G0 F9000 X1.965 Y15.259
G1 F180 X-28.552 Y-15.259 E142.59567
G0 F9000 X-29.118 Y-15.259
G1 F180 X1.400 Y15.259 E144.03115
G0 F9000 X0.834 Y15.259
G1 F180 X-29.684 Y-15.259 E145.46662
G0 F9000 X-30.250 Y-15.259
G1 F180 X0.268 Y15.259 E146.90209
G0 F9000 X-0.296 Y15.259
G1 F180 X-30.815 Y-15.259 E148.33759
G0 F9000 X-31.381 Y-15.259
G1 F180 X-0.862 Y15.259 E149.77309
G0 F9000 X-1.428 Y15.259
G1 F180 X-31.947 Y-15.259 E151.20858
G0 F9000 X-32.512 Y-15.259
G1 F180 X-1.994 Y15.259 E152.64406
G0 F9000 X-2.559 Y15.259
G1 F180 X-33.078 Y-15.259 E154.07955
G0 F9000 X-33.644 Y-15.259
G1 F180 X-3.125 Y15.259 E155.51505
G0 F9000 X-3.691 Y15.259
G1 F180 X-34.209 Y-15.259 E156.95052
G0 F9000 X-34.775 Y-15.259
G1 F180 X-4.256 Y15.259 E158.38602
G0 F9000 X-4.822 Y15.259
G1 F180 X-35.341 Y-15.259 E159.82152
G0 F9000 X-35.906 Y-15.259
G1 F180 X-5.388 Y15.259 E161.25699
G0 F9000 X-5.953 Y15.259
G1 F180 X-36.472 Y-15.259 E162.69249
G0 F9000 X-37.038 Y-15.259
G1 F180 X-6.519 Y15.259 E164.12798
G0 F9000 X-7.085 Y15.259
G1 F180 X-37.603 Y-15.259 E165.56346
G0 F9000 X-38.169 Y-15.259
G1 F180 X-7.650 Y15.259 E166.99895
G0 F9000 X-8.216 Y15.259
G1 F180 X-38.735 Y-15.259 E168.43445
G0 F9000 X-39.300 Y-15.259
G1 F180 X-8.782 Y15.259 E169.86992
G0 F9000 X-9.347 Y15.259
G1 F180 X-39.866 Y-15.259 E171.30542
G0 F9000 X-41.819 Y-6.463
G1 F180 X-20.095 Y15.259 E172.32720
G0 F9000 X-20.661 Y15.259
G1 F180 X-41.819 Y-5.897 E173.32236
G0 F9000 X-41.819 Y-5.332
G1 F180 X-21.227 Y15.259 E174.29092
G0 F9000 X-21.793 Y15.259
G1 F180 X-41.819 Y-4.766 E175.23286
G0 F9000 X-42.021 Y-4.403
G1 F180 X-22.358 Y15.259 E176.15773
G0 F9000 X-22.924 Y15.259
G1 F180 X-43.153 Y-4.969 E177.10921
G0 F9000 X-43.817 Y-5.068
G1 F180 X-23.490 Y15.259 E178.06533
G0 F9000 X-24.055 Y15.259
G1 F180 X-43.817 Y-4.502 E178.99485
G0 F9000 X-43.817 Y-3.937
G1 F180 X-24.621 Y15.259 E179.89777
G0 F9000 X-25.187 Y15.259
G1 F180 X-43.817 Y-3.371 E180.77407
G0 F9000 X-43.817 Y-2.805
G1 F180 X-25.752 Y15.259 E181.62377
G0 F9000 X-26.318 Y15.259
G1 F180 X-43.817 Y-2.240 E182.44687
G0 F9000 X-43.817 Y-1.674
G1 F180 X-26.884 Y15.259 E183.24335
G0 F9000 X-27.449 Y15.259
G1 F180 X-43.817 Y-1.108 E184.01322
G0 F9000 X-43.817 Y-0.543
G1 F180 X-28.015 Y15.259 E184.75650
G0 F9000 X-28.581 Y15.259
G1 F180 X-43.817 Y0.022 E185.47318
G0 F9000 X-43.817 Y0.588
G1 F180 X-29.146 Y15.259 E186.16326
G0 F9000 X-29.712 Y15.259
G1 F180 X-43.817 Y1.153 E186.82674
G0 F9000 X-43.817 Y1.719
G1 F180 X-30.278 Y15.259 E187.46359
G0 F9000 X-30.843 Y15.259
G1 F180 X-43.817 Y2.285 E188.07385
G0 F9000 X-43.817 Y2.851
G1 F180 X-42.183 Y4.485 E188.15071
G0 F9000 X-42.560 Y4.673
G1 F180 X-43.817 Y3.416 E188.20983
G0 F9000 X-43.817 Y3.982
G1 F180 X-42.938 Y4.862 E188.25120
G0 F9000 X-43.315 Y5.050
G1 F180 X-43.817 Y4.830 E188.27477
G1 X-43.692 Y5.238 E188.28896
G0 F9000 X-42.055 Y4.683
G0 X-41.819 Y5.415
G1 F180 X-31.975 Y15.259 E188.75199
G0 F9000 X-32.541 Y15.259
G1 F180 X-41.819 Y5.981 E189.18840
G0 F9000 X-41.819 Y6.547
G1 F180 X-33.106 Y15.259 E189.59821
G0 F9000 X-33.672 Y15.259
G1 F180 X-41.819 Y7.112 E189.98142
G0 F9000 X-41.819 Y7.678
G1 F180 X-34.238 Y15.259 E190.33800
G0 F9000 X-34.803 Y15.259
G1 F180 X-41.819 Y8.244 E190.66799
G0 F9000 X-41.819 Y8.809
G1 F180 X-35.369 Y15.259 E190.97138
G0 F9000 X-35.935 Y15.259
G1 F180 X-41.819 Y9.375 E191.24815
G0 F9000 X-41.819 Y9.941
G1 F180 X-36.500 Y15.259 E191.49831
G0 F9000 X-37.066 Y15.259
G1 F180 X-41.819 Y10.506 E191.72188
G0 F9000 X-41.819 Y11.072
G1 F180 X-37.632 Y15.259 E191.91882
G0 F9000 X-38.197 Y15.259
G1 F180 X-41.819 Y11.638 E192.08917
G0 F9000 X-42.831 Y11.191
G1 F180 X-38.763 Y15.259 E192.28051
G0 F9000 X-39.329 Y15.259
G1 F180 X-43.818 Y10.769 E192.49168
G0 F9000 X-43.818 Y11.335
G1 F180 X-39.894 Y15.259 E192.67626
G0 F9000 X-31.409 Y15.259
G1 F180 X-41.819 Y4.850 E193.16589
G0 F9000 X-42.055 Y11.317
G0 X-43.818 Y11.901
G1 F180 X-40.460 Y15.259 E193.32384
G0 F9000 X-41.026 Y15.259
G1 F180 X-43.818 Y12.466 E193.45519
G0 F9000 X-43.818 Y13.032
G1 F180 X-41.592 Y15.259 E193.55992
G0 F9000 X-42.157 Y15.259
G1 F180 X-43.818 Y13.598 E193.63805
G0 F9000 X-43.818 Y14.164
G1 F180 X-42.723 Y15.259 E193.68955
G0 F9000 X-43.289 Y15.259
G1 F180 X-43.818 Y14.729 E193.71446
G0 F9000 X-42.055 Y11.317
G0 X-42.055 Y4.683
G0 X-41.819 Y-7.029
G1 F180 X-19.530 Y15.259 E194.76284
G0 F9000 X-18.964 Y15.259
G1 F180 X-41.819 Y-7.595 E195.83784
G0 F9000 X-41.819 Y-8.160
G1 F180 X-18.398 Y15.259 E196.93945
G0 F9000 X-17.833 Y15.259
G1 F180 X-41.819 Y-8.726 E198.06765
G0 F9000 X-41.819 Y-9.292
G1 F180 X-17.267 Y15.259 E199.22248
G0 F9000 X-16.701 Y15.259
G1 F180 X-41.819 Y-9.857 E200.40391
G0 F9000 X-41.819 Y-10.423
G1 F180 X-16.136 Y15.259 E201.61193
G0 F9000 X-15.570 Y15.259
G1 F180 X-41.819 Y-10.989 E202.84658
G0 F9000 X-41.819 Y-11.554
G1 F180 X-15.004 Y15.259 E204.10783
G0 F9000 X-14.439 Y15.259
G1 F180 X-43.818 Y-14.120 E205.48973
G0 F9000 X-43.818 Y-14.685
G1 F180 X-13.873 Y15.259 E206.89823
G0 F9000 X-13.307 Y15.259
G1 F180 X-43.818 Y-15.251 E208.33335
G0 F9000 X-43.260 Y-15.259
G1 F180 X-12.742 Y15.259 E209.76882
G0 F9000 X-12.176 Y15.259
G1 F180 X-42.695 Y-15.259 E211.20432
G0 F9000 X-42.129 Y-15.259
G1 F180 X-11.610 Y15.259 E212.63981
G0 F9000 X-11.045 Y15.259
G1 F180 X-41.563 Y-15.259 E214.07529
G0 F9000 X-40.998 Y-15.259
G1 F180 X-10.479 Y15.259 E215.51078
G0 F9000 X-9.913 Y15.259
G1 F180 X-40.432 Y-15.259 E216.94628
G0 F9000 X-43.818 Y-13.554
G1 F180 X-41.914 Y-11.650 E217.03584
G0 F9000 X-42.292 Y-11.462
G1 F180 X-43.818 Y-12.988 E217.10762
G0 F9000 X-43.818 Y-12.423
G1 F180 X-42.668 Y-11.273 E217.16171
G0 F9000 X-43.046 Y-11.085
G1 F180 X-43.818 Y-11.857 E217.19802
G0 F9000 X-43.818 Y-11.291
G1 F180 X-43.424 Y-10.897 E217.21655
G0 F9000 X-42.055 Y-11.317
G0 X9.913 Y-15.259
G1 F180 X40.432 Y15.259 E218.65205
G0 F9000 X40.998 Y15.259
G1 F180 X10.479 Y-15.259 E220.08755
G0 F9000 X11.045 Y-15.259
G1 F180 X41.563 Y15.259 E221.52302
G0 F9000 X41.818 Y14.948
G1 F180 X11.610 Y-15.259 E222.94389
G0 F9000 X12.176 Y-15.259
G1 F180 X41.818 Y14.382 E224.33813
G0 F9000 X41.818 Y13.816
G1 F180 X12.742 Y-15.259 E225.70576
G0 F9000 X13.307 Y-15.259
G1 F180 X41.818 Y13.251 E227.04680
G0 F9000 X41.818 Y12.685
G1 F180 X13.873 Y-15.259 E228.36123
G0 F9000 X14.439 Y-15.259
G1 F180 X41.818 Y12.119 E229.64903
G0 F9000 X41.818 Y11.554
G1 F180 X15.004 Y-15.259 E230.91025
G0 F9000 X15.570 Y-15.259
G1 F180 X41.818 Y10.988 E232.14485
G0 F9000 X41.818 Y10.422
G1 F180 X16.136 Y-15.259 E233.35283
G0 F9000 X16.701 Y-15.259
G1 F180 X41.818 Y9.857 E234.53424
G0 F9000 X41.818 Y9.291
G1 F180 X17.267 Y-15.259 E235.68902
G0 F9000 X17.833 Y-15.259
G1 F180 X41.818 Y8.725 E236.81717
G0 F9000 X41.818 Y8.160
G1 F180 X18.398 Y-15.259 E237.91876
G0 F9000 X18.964 Y-15.259
G1 F180 X41.818 Y7.594 E238.99371
G0 F9000 X42.072 Y7.848
G1 F180 X42.651 Y8.428 E239.02097
G0 F9000 X42.449 Y7.660
G1 F180 X43.805 Y9.016 E239.08475
G0 F9000 X43.817 Y8.462
G1 F180 X42.826 Y7.471 E239.13137
G0 F9000 X43.204 Y7.283
G1 F180 X43.817 Y7.896 E239.16020
G0 F9000 X43.817 Y7.331
G1 F180 X43.581 Y7.095 E239.17130
G0 F9000 X42.054 Y7.596
G0 X41.818 Y7.028
G1 F180 X19.530 Y-15.259 E240.21964
G0 F9000 X35.369 Y-15.259
G1 F180 X41.818 Y-8.810 E240.52298
G0 F9000 X41.818 Y-9.376
G1 F180 X35.935 Y-15.259 E240.79970
G0 F9000 X36.500 Y-15.259
G1 F180 X41.818 Y-9.941 E241.04984
G0 F9000 X41.818 Y-10.507
G1 F180 X37.066 Y-15.259 E241.27336
G0 F9000 X37.632 Y-15.259
G1 F180 X41.818 Y-11.073 E241.47026
G0 F9000 X41.818 Y-11.638
G1 F180 X38.197 Y-15.259 E241.64058
G0 F9000 X38.763 Y-15.259
G1 F180 X41.818 Y-12.204 E241.78427
G0 F9000 X41.818 Y-12.770
G1 F180 X39.329 Y-15.259 E241.90135
G0 F9000 X39.894 Y-15.259
G1 F180 X41.818 Y-13.336 E241.99183
G0 F9000 X41.818 Y-13.901
G1 F180 X40.460 Y-15.259 E242.05570
G0 F9000 X41.026 Y-15.259
G1 F180 X41.818 Y-14.467 E242.09295
G0 F9000 X41.818 Y-15.033
G1 F180 X41.592 Y-15.259 E242.10359
;LAYER:1
M106 S63
